icon-themes/sifr_svg/cmd/32/defineprintarea.svg

<svg viewBox="0 0 32 32" xmlns="http://www.w3.org/2000/svg"><g fill="#555753"><path d="m4 4v5h5v-5zm6 0v5h5v-5zm-6 6v5h5v-5zm6 0v5h5v-5z" opacity=".35"/><path d="m2 2v27h15v-1c-.863813 0-1.648099-.39373-2.201172-1h-4.798828v-5h4v-1h-4v-5h5v2.798828c.290125-.264668.627636-.470511 1-.607422v-2.191406h1v-1h-1v-5h5v5h1v-5h5v5h2v-13zm2 2h5v5h-5zm6 0h5v5h-5zm6 0h5v5h-5zm6 0h5v5h-5zm-18 6h5v5h-5zm6 0h5v5h-5zm-6 6h5v5h-5zm15 1v2h8v-2zm-2 3c-.554 0-1 .446-1 1v4c0 .554.446 1 1 1h1v-2h10v2h1c.554 0 1-.446 1-1v-4c0-.554-.446-1-1-1zm-13 2h5v5h-5zm15 3v5h8v-5z"/></g></svg>

<svg xmlns="http://www.w3.org/2000/svg" viewBox="0 0 32 32">
  <path
     style="fill:#555753;opacity:0.35"
     d="M 4 4 L 4 9 L 9 9 L 9 4 L 4 4 z M 10 4 L 10 9 L 15 9 L 15 4 L 10 4 z M 4 10 L 4 15 L 9 15 L 9 10 L 4 10 z M 10 10 L 10 15 L 15 15 L 15 10 L 10 10 z "
     />
  <path
     style="fill:#555753"
     d="M 2 2 L 2 29 L 17 29 L 17 28 C 16.136187 28 15.351901 27.60627 14.798828 27 L 10 27 L 10 22 L 14 22 L 14 21 L 10 21 L 10 16 L 15 16 L 15 18.798828 C 15.290125 18.53416 15.627636 18.328317 16 18.191406 L 16 16 L 17 16 L 17 15 L 16 15 L 16 10 L 21 10 L 21 15 L 22 15 L 22 10 L 27 10 L 27 15 L 29 15 L 29 2 L 2 2 z M 4 4 L 9 4 L 9 9 L 4 9 L 4 4 z M 10 4 L 15 4 L 15 9 L 10 9 L 10 4 z M 16 4 L 21 4 L 21 9 L 16 9 L 16 4 z M 22 4 L 27 4 L 27 9 L 22 9 L 22 4 z M 4 10 L 9 10 L 9 15 L 4 15 L 4 10 z M 10 10 L 15 10 L 15 15 L 10 15 L 10 10 z M 4 16 L 9 16 L 9 21 L 4 21 L 4 16 z M 19 17 L 19 19 L 27 19 L 27 17 L 19 17 z M 17 20 C 16.446 20 16 20.446 16 21 L 16 25 C 16 25.554 16.446 26 17 26 L 18 26 L 18 24 L 28 24 L 28 26 L 29 26 C 29.554 26 30 25.554 30 25 L 30 21 C 30 20.446 29.554 20 29 20 L 17 20 z M 4 22 L 9 22 L 9 27 L 4 27 L 4 22 z M 19 25 L 19 30 L 27 30 L 27 25 L 19 25 z "
     />
</svg>
